X: 500
T: Wugeng li
L: 1/8
M: 2/4
K: G
D G G E [I:setbarnb 1]| 
d/ e d/d2 | 
d e e/ d/ B | 
B GA2 | 
d A/ B/ d d | 
A d A/ B/ A/ G/ | 
E D/ E/ A B/ E/ | 
D4 | 
G E/ D/G2 | 
B G/ A/B2 | 
d B/ A/ G E | 
BE3 | 
e g e d | 
B e/ g/ e d | 
B B/ A/ G d | 
B2A/ G/ F/ E/ | 
D4 |]

@@@ Tune index: 9374
